img/geolocation.svg

<svg width="12" height="14" viewBox="0 0 12 14" fill="none" xmlns="http://www.w3.org/2000/svg">
<path fill-rule="evenodd" clip-rule="evenodd" d="M6.00008 1.16667C4.7624 1.16667 3.57542 1.65833 2.70025 2.5335C1.82508 3.40867 1.33341 4.59566 1.33341 5.83333C1.33341 7.64053 2.50926 9.39415 3.79855 10.7551C4.43127 11.4229 5.06597 11.9697 5.54314 12.3497C5.72073 12.4911 5.87584 12.6089 6.00008 12.7007C6.12432 12.6089 6.27943 12.4911 6.45702 12.3497C6.93419 11.9697 7.56889 11.4229 8.20161 10.7551C9.4909 9.39415 10.6667 7.64053 10.6667 5.83333C10.6667 4.59566 10.1751 3.40867 9.29991 2.5335C8.42474 1.65833 7.23776 1.16667 6.00008 1.16667ZM6.00008 13.4167C5.67651 13.902 5.67636 13.9019 5.67619 13.9018L5.67452 13.9007L5.67064 13.8981L5.65727 13.8891C5.64591 13.8813 5.62971 13.8703 5.60899 13.8559C5.56756 13.8272 5.50802 13.7854 5.43296 13.7312C5.2829 13.6228 5.07046 13.4646 4.8164 13.2623C4.30919 12.8584 3.63139 12.275 2.95161 11.5574C1.6159 10.1475 0.166748 8.10947 0.166748 5.83333C0.166748 4.28624 0.78133 2.80251 1.87529 1.70854C2.96925 0.614581 4.45299 0 6.00008 0C7.54718 0 9.03091 0.614581 10.1249 1.70854C11.2188 2.80251 11.8334 4.28624 11.8334 5.83333C11.8334 8.10947 10.3843 10.1475 9.04855 11.5574C8.36877 12.275 7.69097 12.8584 7.18377 13.2623C6.9297 13.4646 6.71726 13.6228 6.5672 13.7312C6.49214 13.7854 6.43261 13.8272 6.39117 13.8559C6.37045 13.8703 6.35425 13.8813 6.3429 13.8891L6.32953 13.8981L6.32564 13.9007L6.32441 13.9015C6.32424 13.9016 6.32366 13.902 6.00008 13.4167ZM6.00008 13.4167L6.32366 13.902C6.12772 14.0327 5.87213 14.0324 5.67619 13.9018L6.00008 13.4167Z" fill="white"/>
</svg>

<svg width="12" height="14" fill="none" xmlns="http://www.w3.org/2000/svg"><path fill-rule="evenodd" clip-rule="evenodd" d="M6 1.167a4.667 4.667 0 00-4.667 4.666c0 1.808 1.176 3.561 2.466 4.922A17.178 17.178 0 006 12.701a17.178 17.178 0 002.202-1.946c1.289-1.36 2.465-3.114 2.465-4.922A4.667 4.667 0 006 1.167zm0 12.25l-.324.485-.001-.001-.004-.003-.014-.009-.048-.033c-.041-.029-.101-.07-.176-.125a18.327 18.327 0 01-2.481-2.174C1.616 10.147.167 8.11.167 5.833a5.833 5.833 0 0111.666 0c0 2.276-1.449 4.315-2.784 5.724a18.328 18.328 0 01-2.658 2.299l-.048.033-.013.01-.004.002h-.002L6 13.418zm0 0l.324.485a.584.584 0 01-.648 0L6 13.417z" fill="#fff"/></svg>
